api/tests/fixtures/niaz.xmp
<?xpacket begin='﻿' id='W5M0MpCehiHzreSzNTczkc9d'?>
<x:xmpmeta xmlns:x='adobe:ns:meta/' x:xmptk='Image::ExifTool 12.60'>
<rdf:RDF xmlns:rdf='http://www.w3.org/1999/02/22-rdf-syntax-ns#'>

 <rdf:Description rdf:about=''
  xmlns:Iptc4xmpCore='http://iptc.org/std/Iptc4xmpCore/1.0/xmlns/'>
  <Iptc4xmpCore:CreatorContactInfo rdf:parseType='Resource'>
   <Iptc4xmpCore:CiAdrCity>Washington</Iptc4xmpCore:CiAdrCity>
   <Iptc4xmpCore:CiAdrCtry>USA</Iptc4xmpCore:CiAdrCtry>
   <Iptc4xmpCore:CiAdrExtadr>NASA Headquarters, 300 E Street, SW </Iptc4xmpCore:CiAdrExtadr>
   <Iptc4xmpCore:CiAdrPcode>20545</Iptc4xmpCore:CiAdrPcode>
   <Iptc4xmpCore:CiAdrRegion>DC</Iptc4xmpCore:CiAdrRegion>
   <Iptc4xmpCore:CiTelWork>202-358-1900</Iptc4xmpCore:CiTelWork>
   <Iptc4xmpCore:CiUrlWork>http://www.nasa.gov</Iptc4xmpCore:CiUrlWork>
  </Iptc4xmpCore:CreatorContactInfo>
 </rdf:Description>

 <rdf:Description rdf:about=''
  xmlns:Iptc4xmpExt='http://iptc.org/std/Iptc4xmpExt/2008-02-29/'>
  <Iptc4xmpExt:Event>
   <rdf:Alt>
    <rdf:li xml:lang='x-default'>"First Man" Premiere at NASM</rdf:li>
   </rdf:Alt>
  </Iptc4xmpExt:Event>
  <Iptc4xmpExt:PersonInImage>
   <rdf:Bag>
    <rdf:li>Niaz Faridani-Rad</rdf:li>
   </rdf:Bag>
  </Iptc4xmpExt:PersonInImage>
 </rdf:Description>

 <rdf:Description rdf:about=''
  xmlns:MP='http://ns.microsoft.com/photo/1.2/'
  xmlns:MPRI='http://ns.microsoft.com/photo/1.2/t/RegionInfo#'
  xmlns:MPReg='http://ns.microsoft.com/photo/1.2/t/Region#'>
  <MP:RegionInfo rdf:parseType='Resource'>
   <MPRI:Regions>
    <rdf:Bag>
     <rdf:li rdf:parseType='Resource'>
      <MPReg:PersonDisplayName>Niaz Faridani-Rad</MPReg:PersonDisplayName>
      <MPReg:Rectangle>0.280277, 0.125, 0.436419, 0.485614</MPReg:Rectangle>
     </rdf:li>
    </rdf:Bag>
   </MPRI:Regions>
  </MP:RegionInfo>
 </rdf:Description>

 <rdf:Description rdf:about=''
  xmlns:MicrosoftPhoto='http://ns.microsoft.com/photo/1.0'>
  <MicrosoftPhoto:LastKeywordXMP>
   <rdf:Bag>
    <rdf:li>First Man</rdf:li>
    <rdf:li>Washington</rdf:li>
    <rdf:li>Smithsonian National Air and Space Museum (NASM)</rdf:li>
    <rdf:li>DC</rdf:li>
    <rdf:li>Niaz Faridani-Rad</rdf:li>
   </rdf:Bag>
  </MicrosoftPhoto:LastKeywordXMP>
 </rdf:Description>

 <rdf:Description rdf:about=''
  xmlns:acdsee='http://ns.acdsee.com/iptc/1.0/'>
  <acdsee:categories>&lt;Categories&gt;&lt;Category Assigned=&quot;1&quot;&gt;First Man&lt;/Category&gt;&lt;Category Assigned=&quot;1&quot;&gt;Washington&lt;/Category&gt;&lt;Category Assigned=&quot;1&quot;&gt;Smithsonian National Air and Space Museum (NASM)&lt;/Category&gt;&lt;Category Assigned=&quot;1&quot;&gt;DC&lt;/Category&gt;&lt;Category Assigned=&quot;1&quot;&gt;Niaz Faridani-Rad&lt;/Category&gt;&lt;/Categories&gt;</acdsee:categories>
 </rdf:Description>

 <rdf:Description rdf:about=''
  xmlns:aux='http://ns.adobe.com/exif/1.0/aux/'>
  <aux:ApproximateFocusDistance>398/100</aux:ApproximateFocusDistance>
  <aux:ImageNumber>7311</aux:ImageNumber>
  <aux:Lens>70.0-200.0 mm f/2.8</aux:Lens>
  <aux:LensID>162</aux:LensID>
  <aux:LensInfo>700/10 2000/10 28/10 28/10</aux:LensInfo>
  <aux:SerialNumber>3005331</aux:SerialNumber>
 </rdf:Description>

 <rdf:Description rdf:about=''
  xmlns:crs='http://ns.adobe.com/camera-raw-settings/1.0/'>
  <crs:AlreadyApplied>True</crs:AlreadyApplied>
  <crs:AutoLateralCA>0</crs:AutoLateralCA>
  <crs:Blacks2012>0</crs:Blacks2012>
  <crs:BlueHue>0</crs:BlueHue>
  <crs:BlueSaturation>0</crs:BlueSaturation>
  <crs:CameraProfile>Adobe Standard</crs:CameraProfile>
  <crs:CameraProfileDigest>DC0173EBB7ECE22257A40AD42B5C9460</crs:CameraProfileDigest>
  <crs:Clarity2012>+12</crs:Clarity2012>
  <crs:ColorNoiseReduction>25</crs:ColorNoiseReduction>
  <crs:ColorNoiseReductionDetail>50</crs:ColorNoiseReductionDetail>
  <crs:ColorNoiseReductionSmoothness>50</crs:ColorNoiseReductionSmoothness>
  <crs:Contrast2012>0</crs:Contrast2012>
  <crs:ConvertToGrayscale>False</crs:ConvertToGrayscale>
  <crs:DefringeGreenAmount>0</crs:DefringeGreenAmount>
  <crs:DefringeGreenHueHi>60</crs:DefringeGreenHueHi>
  <crs:DefringeGreenHueLo>40</crs:DefringeGreenHueLo>
  <crs:DefringePurpleAmount>0</crs:DefringePurpleAmount>
  <crs:DefringePurpleHueHi>70</crs:DefringePurpleHueHi>
  <crs:DefringePurpleHueLo>30</crs:DefringePurpleHueLo>
  <crs:Dehaze>0</crs:Dehaze>
  <crs:Exposure2012>0.00</crs:Exposure2012>
  <crs:GrainAmount>0</crs:GrainAmount>
  <crs:GreenHue>0</crs:GreenHue>
  <crs:GreenSaturation>0</crs:GreenSaturation>
  <crs:HasCrop>False</crs:HasCrop>
  <crs:HasSettings>True</crs:HasSettings>
  <crs:Highlights2012>0</crs:Highlights2012>
  <crs:HueAdjustmentAqua>0</crs:HueAdjustmentAqua>
  <crs:HueAdjustmentBlue>0</crs:HueAdjustmentBlue>
  <crs:HueAdjustmentGreen>0</crs:HueAdjustmentGreen>
  <crs:HueAdjustmentMagenta>0</crs:HueAdjustmentMagenta>
  <crs:HueAdjustmentOrange>0</crs:HueAdjustmentOrange>
  <crs:HueAdjustmentPurple>0</crs:HueAdjustmentPurple>
  <crs:HueAdjustmentRed>0</crs:HueAdjustmentRed>
  <crs:HueAdjustmentYellow>0</crs:HueAdjustmentYellow>
  <crs:LensManualDistortionAmount>0</crs:LensManualDistortionAmount>
  <crs:LensProfileEnable>0</crs:LensProfileEnable>
  <crs:LensProfileSetup>LensDefaults</crs:LensProfileSetup>
  <crs:Look rdf:parseType='Resource'>
   <crs:Name/>
  </crs:Look>
  <crs:LuminanceAdjustmentAqua>0</crs:LuminanceAdjustmentAqua>
  <crs:LuminanceAdjustmentBlue>0</crs:LuminanceAdjustmentBlue>
  <crs:LuminanceAdjustmentGreen>0</crs:LuminanceAdjustmentGreen>
  <crs:LuminanceAdjustmentMagenta>0</crs:LuminanceAdjustmentMagenta>
  <crs:LuminanceAdjustmentOrange>0</crs:LuminanceAdjustmentOrange>
  <crs:LuminanceAdjustmentPurple>0</crs:LuminanceAdjustmentPurple>
  <crs:LuminanceAdjustmentRed>0</crs:LuminanceAdjustmentRed>
  <crs:LuminanceAdjustmentYellow>0</crs:LuminanceAdjustmentYellow>
  <crs:LuminanceSmoothing>0</crs:LuminanceSmoothing>
  <crs:OverrideLookVignette>False</crs:OverrideLookVignette>
  <crs:ParametricDarks>0</crs:ParametricDarks>
  <crs:ParametricHighlightSplit>75</crs:ParametricHighlightSplit>
  <crs:ParametricHighlights>0</crs:ParametricHighlights>
  <crs:ParametricLights>0</crs:ParametricLights>
  <crs:ParametricMidtoneSplit>50</crs:ParametricMidtoneSplit>
  <crs:ParametricShadowSplit>25</crs:ParametricShadowSplit>
  <crs:ParametricShadows>0</crs:ParametricShadows>
  <crs:PerspectiveAspect>0</crs:PerspectiveAspect>
  <crs:PerspectiveHorizontal>0</crs:PerspectiveHorizontal>
  <crs:PerspectiveRotate>0.0</crs:PerspectiveRotate>
  <crs:PerspectiveScale>100</crs:PerspectiveScale>
  <crs:PerspectiveUpright>0</crs:PerspectiveUpright>
  <crs:PerspectiveVertical>0</crs:PerspectiveVertical>
  <crs:PerspectiveX>0.00</crs:PerspectiveX>
  <crs:PerspectiveY>0.00</crs:PerspectiveY>
  <crs:PostCropVignetteAmount>0</crs:PostCropVignetteAmount>
  <crs:ProcessVersion>10.0</crs:ProcessVersion>
  <crs:RawFileName>_1AG7311.nef</crs:RawFileName>
  <crs:RedHue>0</crs:RedHue>
  <crs:RedSaturation>0</crs:RedSaturation>
  <crs:Saturation>0</crs:Saturation>
  <crs:SaturationAdjustmentAqua>0</crs:SaturationAdjustmentAqua>
  <crs:SaturationAdjustmentBlue>0</crs:SaturationAdjustmentBlue>
  <crs:SaturationAdjustmentGreen>0</crs:SaturationAdjustmentGreen>
  <crs:SaturationAdjustmentMagenta>0</crs:SaturationAdjustmentMagenta>
  <crs:SaturationAdjustmentOrange>0</crs:SaturationAdjustmentOrange>
  <crs:SaturationAdjustmentPurple>0</crs:SaturationAdjustmentPurple>
  <crs:SaturationAdjustmentRed>0</crs:SaturationAdjustmentRed>
  <crs:SaturationAdjustmentYellow>0</crs:SaturationAdjustmentYellow>
  <crs:ShadowTint>0</crs:ShadowTint>
  <crs:Shadows2012>0</crs:Shadows2012>
  <crs:SharpenDetail>36</crs:SharpenDetail>
  <crs:SharpenEdgeMasking>80</crs:SharpenEdgeMasking>
  <crs:SharpenRadius>+1.0</crs:SharpenRadius>
  <crs:Sharpness>75</crs:Sharpness>
  <crs:SplitToningBalance>0</crs:SplitToningBalance>
  <crs:SplitToningHighlightHue>0</crs:SplitToningHighlightHue>
  <crs:SplitToningHighlightSaturation>0</crs:SplitToningHighlightSaturation>
  <crs:SplitToningShadowHue>0</crs:SplitToningShadowHue>
  <crs:SplitToningShadowSaturation>0</crs:SplitToningShadowSaturation>
  <crs:Temperature>6650</crs:Temperature>
  <crs:Tint>-60</crs:Tint>
  <crs:ToneCurve>
   <rdf:Seq>
    <rdf:li>0, 0</rdf:li>
    <rdf:li>255, 255</rdf:li>
   </rdf:Seq>
  </crs:ToneCurve>
  <crs:ToneCurveBlue>
   <rdf:Seq>
    <rdf:li>0, 0</rdf:li>
    <rdf:li>255, 255</rdf:li>
   </rdf:Seq>
  </crs:ToneCurveBlue>
  <crs:ToneCurveGreen>
   <rdf:Seq>
    <rdf:li>0, 0</rdf:li>
    <rdf:li>255, 255</rdf:li>
   </rdf:Seq>
  </crs:ToneCurveGreen>
  <crs:ToneCurveName>Linear</crs:ToneCurveName>
  <crs:ToneCurveName2012>Linear</crs:ToneCurveName2012>
  <crs:ToneCurvePV2012>
   <rdf:Seq>
    <rdf:li>0, 0</rdf:li>
    <rdf:li>255, 255</rdf:li>
   </rdf:Seq>
  </crs:ToneCurvePV2012>
  <crs:ToneCurvePV2012Blue>
   <rdf:Seq>
    <rdf:li>0, 0</rdf:li>
    <rdf:li>255, 255</rdf:li>
   </rdf:Seq>
  </crs:ToneCurvePV2012Blue>
  <crs:ToneCurvePV2012Green>
   <rdf:Seq>
    <rdf:li>0, 0</rdf:li>
    <rdf:li>255, 255</rdf:li>
   </rdf:Seq>
  </crs:ToneCurvePV2012Green>
  <crs:ToneCurvePV2012Red>
   <rdf:Seq>
    <rdf:li>0, 0</rdf:li>
    <rdf:li>255, 255</rdf:li>
   </rdf:Seq>
  </crs:ToneCurvePV2012Red>
  <crs:ToneCurveRed>
   <rdf:Seq>
    <rdf:li>0, 0</rdf:li>
    <rdf:li>255, 255</rdf:li>
   </rdf:Seq>
  </crs:ToneCurveRed>
  <crs:ToneMapStrength>0</crs:ToneMapStrength>
  <crs:UprightCenterMode>0</crs:UprightCenterMode>
  <crs:UprightCenterNormX>0.5</crs:UprightCenterNormX>
  <crs:UprightCenterNormY>0.5</crs:UprightCenterNormY>
  <crs:UprightFocalLength35mm>35</crs:UprightFocalLength35mm>
  <crs:UprightFocalMode>0</crs:UprightFocalMode>
  <crs:UprightFourSegmentsCount>0</crs:UprightFourSegmentsCount>
  <crs:UprightPreview>False</crs:UprightPreview>
  <crs:UprightTransformCount>6</crs:UprightTransformCount>
  <crs:UprightVersion>151388160</crs:UprightVersion>
  <crs:Version>10.4</crs:Version>
  <crs:Vibrance>+20</crs:Vibrance>
  <crs:VignetteAmount>0</crs:VignetteAmount>
  <crs:WhiteBalance>Custom</crs:WhiteBalance>
  <crs:Whites2012>0</crs:Whites2012>
 </rdf:Description>

 <rdf:Description rdf:about=''
  xmlns:dc='http://purl.org/dc/elements/1.1/'>
  <dc:creator>
   <rdf:Seq>
    <rdf:li>NASA/Aubrey Gemignani</rdf:li>
   </rdf:Seq>
  </dc:creator>
  <dc:description>
   <rdf:Alt>
    <rdf:li xml:lang='x-default'>American actor Niaz Faridani-Rad arrives on the red carpet for the premiere of the film "First Man" at the Smithsonian National Air and Space Museum Thursday, Oct. 4, 2018 in Washington. The film is based on the book by Jim Hansen, and chronicles the life of NASA astronaut Neil Armstrong from test pilot to his historic Moon landing. Photo Credit: (NASA/Aubrey Gemignani)</rdf:li>
   </rdf:Alt>
  </dc:description>
  <dc:format>image/jpeg</dc:format>
  <dc:rights>
   <rdf:Alt>
    <rdf:li xml:lang='x-default'>(NASA/Aubrey Gemignani)</rdf:li>
   </rdf:Alt>
  </dc:rights>
  <dc:subject>
   <rdf:Bag>
    <rdf:li>First Man</rdf:li>
    <rdf:li>Washington</rdf:li>
    <rdf:li>Smithsonian National Air and Space Museum (NASM)</rdf:li>
    <rdf:li>DC</rdf:li>
    <rdf:li>Niaz Faridani-Rad</rdf:li>
   </rdf:Bag>
  </dc:subject>
  <dc:title>
   <rdf:Alt>
    <rdf:li xml:lang='x-default'>"First Man" Premiere at NASM</rdf:li>
   </rdf:Alt>
  </dc:title>
 </rdf:Description>

 <rdf:Description rdf:about=''
  xmlns:digiKam='http://www.digikam.org/ns/1.0/'>
  <digiKam:TagsList>
   <rdf:Seq>
    <rdf:li>First Man</rdf:li>
    <rdf:li>Washington</rdf:li>
    <rdf:li>Smithsonian National Air and Space Museum (NASM)</rdf:li>
    <rdf:li>DC</rdf:li>
    <rdf:li>Niaz Faridani-Rad</rdf:li>
   </rdf:Seq>
  </digiKam:TagsList>
 </rdf:Description>

 <rdf:Description rdf:about=''
  xmlns:exif='http://ns.adobe.com/exif/1.0/'>
  <exif:ApertureValue>433985/100000</exif:ApertureValue>
  <exif:CFAPattern>2 0 2 0 0 1 1 2</exif:CFAPattern>
  <exif:ColorSpace>1</exif:ColorSpace>
  <exif:Contrast>0</exif:Contrast>
  <exif:CustomRendered>0</exif:CustomRendered>
  <exif:ExifVersion>0230</exif:ExifVersion>
  <exif:ExposureBiasValue>0/6</exif:ExposureBiasValue>
  <exif:ExposureMode>1</exif:ExposureMode>
  <exif:ExposureProgram>1</exif:ExposureProgram>
  <exif:ExposureTime>1/320</exif:ExposureTime>
  <exif:FNumber>45/10</exif:FNumber>
  <exif:FileSource>3</exif:FileSource>
  <exif:Flash rdf:parseType='Resource'>
   <exif:Fired>False</exif:Fired>
   <exif:Function>False</exif:Function>
   <exif:Mode>0</exif:Mode>
   <exif:RedEyeMode>False</exif:RedEyeMode>
   <exif:Return>0</exif:Return>
  </exif:Flash>
  <exif:FocalLength>2000/10</exif:FocalLength>
  <exif:FocalLengthIn35mmFilm>200</exif:FocalLengthIn35mmFilm>
  <exif:FocalPlaneResolutionUnit>3</exif:FocalPlaneResolutionUnit>
  <exif:FocalPlaneXResolution>50857775/32768</exif:FocalPlaneXResolution>
  <exif:FocalPlaneYResolution>50857775/32768</exif:FocalPlaneYResolution>
  <exif:GainControl>1</exif:GainControl>
  <exif:ISOSpeedRatings>
   <rdf:Seq>
    <rdf:li>2000</rdf:li>
   </rdf:Seq>
  </exif:ISOSpeedRatings>
  <exif:LightSource>0</exif:LightSource>
  <exif:MaxApertureValue>30/10</exif:MaxApertureValue>
  <exif:MeteringMode>5</exif:MeteringMode>
  <exif:Saturation>0</exif:Saturation>
  <exif:SceneCaptureType>0</exif:SceneCaptureType>
  <exif:SceneType>1</exif:SceneType>
  <exif:SensingMethod>2</exif:SensingMethod>
  <exif:Sharpness>0</exif:Sharpness>
  <exif:ShutterSpeedValue>8321928/1000000</exif:ShutterSpeedValue>
  <exif:SubjectDistanceRange>0</exif:SubjectDistanceRange>
  <exif:WhiteBalance>0</exif:WhiteBalance>
 </rdf:Description>

 <rdf:Description rdf:about=''
  xmlns:lr='http://ns.adobe.com/lightroom/1.0/'>
  <lr:hierarchicalSubject>
   <rdf:Bag>
    <rdf:li>First Man</rdf:li>
    <rdf:li>Washington</rdf:li>
    <rdf:li>Smithsonian National Air and Space Museum (NASM)</rdf:li>
    <rdf:li>DC</rdf:li>
    <rdf:li>Niaz Faridani-Rad</rdf:li>
   </rdf:Bag>
  </lr:hierarchicalSubject>
 </rdf:Description>

 <rdf:Description rdf:about=''
  xmlns:mediapro='http://ns.iview-multimedia.com/mediapro/1.0/'>
  <mediapro:CatalogSets>
   <rdf:Bag>
    <rdf:li>First Man</rdf:li>
    <rdf:li>Washington</rdf:li>
    <rdf:li>Smithsonian National Air and Space Museum (NASM)</rdf:li>
    <rdf:li>DC</rdf:li>
    <rdf:li>Niaz Faridani-Rad</rdf:li>
   </rdf:Bag>
  </mediapro:CatalogSets>
 </rdf:Description>

 <rdf:Description rdf:about=''
  xmlns:mwg-rs='http://www.metadataworkinggroup.com/schemas/regions/'
  xmlns:stArea='http://ns.adobe.com/xmp/sType/Area#'>
  <mwg-rs:Regions rdf:parseType='Resource'>
   <mwg-rs:RegionList>
    <rdf:Bag>
     <rdf:li rdf:parseType='Resource'>
      <mwg-rs:Area rdf:parseType='Resource'>
       <stArea:h>0.485614</stArea:h>
       <stArea:unit>normalized</stArea:unit>
       <stArea:w>0.436419</stArea:w>
       <stArea:x>0.498486</stArea:x>
       <stArea:y>0.367807</stArea:y>
      </mwg-rs:Area>
      <mwg-rs:Name>Niaz Faridani-Rad</mwg-rs:Name>
      <mwg-rs:Type>Face</mwg-rs:Type>
     </rdf:li>
    </rdf:Bag>
   </mwg-rs:RegionList>
  </mwg-rs:Regions>
 </rdf:Description>

 <rdf:Description rdf:about=''
  xmlns:photomechanic='http://ns.camerabits.com/photomechanic/1.0/'>
  <photomechanic:ColorClass>0</photomechanic:ColorClass>
  <photomechanic:PMVersion>PM5</photomechanic:PMVersion>
  <photomechanic:Prefs>0:0:5:007311</photomechanic:Prefs>
  <photomechanic:Tagged>False</photomechanic:Tagged>
 </rdf:Description>

 <rdf:Description rdf:about=''
  xmlns:photoshop='http://ns.adobe.com/photoshop/1.0/'>
  <photoshop:AuthorsPosition>Photo Archivist/Photographer</photoshop:AuthorsPosition>
  <photoshop:CaptionWriter>ag</photoshop:CaptionWriter>
  <photoshop:Credit>(NASA/Aubrey Gemignani)</photoshop:Credit>
  <photoshop:DateCreated>2018-10-04T19:21:55-04:00</photoshop:DateCreated>
  <photoshop:Headline>&quot;First Man&quot; Premiere at NASM</photoshop:Headline>
  <photoshop:Instructions>MANDATORY CREDIT: (NASA/Aubrey Gemignani)</photoshop:Instructions>
  <photoshop:Source>(NASA/Aubrey Gemignani)</photoshop:Source>
  <photoshop:TransmissionReference>NHQ201810040124</photoshop:TransmissionReference>
 </rdf:Description>

 <rdf:Description rdf:about=''
  xmlns:tiff='http://ns.adobe.com/tiff/1.0/'>
  <tiff:Make>NIKON CORPORATION</tiff:Make>
  <tiff:Model>NIKON D5</tiff:Model>
  <tiff:ResolutionUnit>2</tiff:ResolutionUnit>
  <tiff:Software>Adobe Photoshop Lightroom Classic 7.4 (Macintosh)</tiff:Software>
  <tiff:XResolution>240/1</tiff:XResolution>
  <tiff:YResolution>240/1</tiff:YResolution>
 </rdf:Description>

 <rdf:Description rdf:about=''
  xmlns:xmp='http://ns.adobe.com/xap/1.0/'>
  <xmp:CreateDate>2018-10-04T19:21:55-04:00</xmp:CreateDate>
  <xmp:CreatorTool>Adobe Photoshop Lightroom Classic 7.4 (Macintosh)</xmp:CreatorTool>
  <xmp:MetadataDate>2018-10-04T21:53:24-04:00</xmp:MetadataDate>
  <xmp:ModifyDate>2018-10-04T21:53:24-04:00</xmp:ModifyDate>
  <xmp:Rating>5</xmp:Rating>
 </rdf:Description>

 <rdf:Description rdf:about=''
  xmlns:stEvt='http://ns.adobe.com/xap/1.0/sType/ResourceEvent#'
  xmlns:stRef='http://ns.adobe.com/xap/1.0/sType/ResourceRef#'
  xmlns:xmpMM='http://ns.adobe.com/xap/1.0/mm/'>
  <xmpMM:DerivedFrom rdf:parseType='Resource'>
   <stRef:documentID>E217B47072178EE0C74E34127F15697D</stRef:documentID>
   <stRef:originalDocumentID>E217B47072178EE0C74E34127F15697D</stRef:originalDocumentID>
  </xmpMM:DerivedFrom>
  <xmpMM:DocumentID>xmp.did:1c7fcbef-0981-466e-a9ea-7c659325f7d4</xmpMM:DocumentID>
  <xmpMM:History>
   <rdf:Seq>
    <rdf:li rdf:parseType='Resource'>
     <stEvt:action>derived</stEvt:action>
     <stEvt:parameters>converted from image/x-nikon-nef to image/jpeg, saved to new location</stEvt:parameters>
    </rdf:li>
    <rdf:li rdf:parseType='Resource'>
     <stEvt:action>saved</stEvt:action>
     <stEvt:changed>/</stEvt:changed>
     <stEvt:instanceID>xmp.iid:1c7fcbef-0981-466e-a9ea-7c659325f7d4</stEvt:instanceID>
     <stEvt:softwareAgent>Adobe Photoshop Lightroom Classic 7.4 (Macintosh)</stEvt:softwareAgent>
     <stEvt:when>2018-10-04T21:53:24-04:00</stEvt:when>
    </rdf:li>
   </rdf:Seq>
  </xmpMM:History>
  <xmpMM:InstanceID>xmp.iid:1c7fcbef-0981-466e-a9ea-7c659325f7d4</xmpMM:InstanceID>
  <xmpMM:OriginalDocumentID>E217B47072178EE0C74E34127F15697D</xmpMM:OriginalDocumentID>
 </rdf:Description>

 <rdf:Description rdf:about=''
  xmlns:xmpRights='http://ns.adobe.com/xap/1.0/rights/'>
  <xmpRights:Marked>False</xmpRights:Marked>
  <xmpRights:UsageTerms>
   <rdf:Alt>
    <rdf:li xml:lang='x-default'>Released to Public</rdf:li>
   </rdf:Alt>
  </xmpRights:UsageTerms>
 </rdf:Description>
</rdf:RDF>
</x:xmpmeta>
<?xpacket end='w'?>